packages/ffe-icons/icons/filled/sm/barefoot.svg

<svg xmlns="http://www.w3.org/2000/svg" height="20" viewBox="0 -960 960 960" width="20"><path d="M250.506-648q-10.966 0-18.581-7.418t-7.615-18.384q0-10.966 7.418-18.581 7.418-7.616 18.384-7.616 10.966 0 18.581 7.419 7.616 7.418 7.616 18.384 0 10.966-7.419 18.581Q261.472-648 250.506-648ZM395.54-131.387q-56.462-.385-96.001-39.731-39.538-39.345-39.538-96.268v-228q0-92.666 65.917-156.332Q391.834-715.384 486-715.384h57q59.711 0 102.355 39.168 42.644 39.168 42.644 96.446 0 45.432-26.497 81.272-26.497 35.839-69.349 49.419-27 10.692-43.577 33.9-16.577 23.208-16.577 51.793v96q0 56.863-39.702 96.623-39.702 39.76-96.757 39.376ZM336.89-720q-10.966 0-18.581-7.475t-7.615-18.524v-15.847q0-11.049 7.418-18.524 7.418-7.475 18.384-7.475 10.966 0 18.581 7.475 7.616 7.475 7.616 18.524v15.847q0 11.049-7.419 18.524Q347.856-720 336.89-720Zm59.358 536.614q34.752 0 59.252-24.675t24.5-59.325v-96q0-47 27-84t72-52q26-8 41.5-30t15.5-49q0-35.615-27.5-60.307-27.5-24.693-65.5-24.693h-57q-71.775 0-122.888 48.5Q312-566.386 312-495.386v228q0 34.65 24.748 59.325 24.748 24.675 59.5 24.675ZM449.197-744q-10.966 0-18.581-7.475t-7.615-18.524v-27.847q0-11.049 7.418-18.524 7.418-7.475 18.384-7.475 10.966 0 18.581 7.475Q475-808.895 475-797.846v27.847q0 11.049-7.419 18.524Q460.163-744 449.197-744Zm112.308 0q-10.966 0-18.582-7.475-7.615-7.475-7.615-18.524v-51.847q0-11.049 7.418-18.524 7.418-7.475 18.384-7.475 10.966 0 18.582 7.475 7.615 7.475 7.615 18.524v51.847q0 11.049-7.418 18.524Q572.471-744 561.505-744Zm133.802 20.154q-19.615 0-33.653-14.039-14.039-14.038-14.039-33.653v-24.769q0-19.615 14.039-33.653 14.038-14.039 33.653-14.039t33.653 14.039q14.038 14.038 14.038 33.653v24.769q0 19.615-14.038 33.653-14.038 14.039-33.653 14.039Z"/></svg>

<svg xmlns="http://www.w3.org/2000/svg" height="20" viewBox="0 -960 960 960" width="20"><path d="M250.51-648q-10.97 0-18.58-7.42-7.62-7.42-7.62-18.38 0-10.97 7.42-18.58 7.42-7.62 18.38-7.62 10.97 0 18.58 7.42 7.62 7.42 7.62 18.38 0 10.97-7.42 18.58-7.42 7.62-18.38 7.62Zm145.03 516.61q-56.46-.38-96-39.73Q260-210.46 260-267.39v-228q0-92.66 65.92-156.33 65.91-63.66 160.08-63.66h57q59.71 0 102.35 39.16Q688-637.05 688-579.77q0 45.43-26.5 81.27-26.5 35.84-69.35 49.42-27 10.69-43.57 33.9Q532-391.97 532-363.39v96q0 56.87-39.7 96.63t-96.76 39.37ZM336.89-720q-10.97 0-18.58-7.47-7.62-7.48-7.62-18.53v-15.85q0-11.05 7.42-18.52 7.42-7.47 18.39-7.47 10.96 0 18.58 7.47 7.61 7.47 7.61 18.52V-746q0 11.05-7.42 18.53-7.41 7.47-18.38 7.47Zm112.31-24q-10.97 0-18.58-7.47Q423-758.95 423-770v-27.85q0-11.05 7.42-18.52 7.42-7.47 18.38-7.47 10.97 0 18.58 7.47 7.62 7.47 7.62 18.52V-770q0 11.05-7.42 18.53-7.42 7.47-18.38 7.47Zm112.3 0q-10.96 0-18.58-7.47-7.61-7.48-7.61-18.53v-51.85q0-11.05 7.42-18.52 7.41-7.47 18.38-7.47 10.97 0 18.58 7.47 7.62 7.47 7.62 18.52V-770q0 11.05-7.42 18.53-7.42 7.47-18.39 7.47Zm133.81 20.15q-19.62 0-33.66-14.03-14.03-14.04-14.03-33.66v-24.77q0-19.61 14.03-33.65Q675.69-844 695.31-844q19.61 0 33.65 14.04T743-796.31v24.77q0 19.62-14.04 33.66-14.04 14.03-33.65 14.03Z"/></svg>
